!! 00027] TT[TB
!! Eigene Aufnahme, Guangzhou, 5.5.87
!!!OTL: Mache fu zhige
!!!ARE: Xinjiang
!! Ethnic Group: Weiwuer
!! MM,    S. 385f (Quelle S. Bandprotokoll)
!!!SCT: C0964
!!!YEM: Copyright 1995, estate of Helmut Schaffrath.
**kern
*ICvox
*Ivox
*M4/4
*k[b-e-a-d-]
*A-:
{16f
16f
16f
16a-
8a-
8a-
16b-
16cc
16b-
16a-
8a-
8f
=1
16f
16a-
16a-
16a-
16a-
16b-
16cc
16a-
4b-
4r}
=2
{16cc
16cc
16cc
16b-
8cc
8cc
16cc
16ee-
16cc
16b-
8a-
8f
=3
16f
16a-
16b-
16cc
16a-
16b-
8g
4f
4r}
=4
{16ff
16gg
16ff
16ee-
8ff
8ff
16ee-
16ee-
16ddn
16ee-
8ee-
8ee-
=5
16ee-
16ee-
16ddn
16ee-
8ff
16ee-
16dd-
4cc
4r}
=6
{16dd-
16cc
16ee-
16ff
16ee-
16dd-
8cc
16.cc
32dd-
16cc
16b-
8a-
16g
16a-
=7
8b-
16cc
16a-
8b-
16a-
16g
4f
4r}
==
!!!AGN: Qingge
!! Die Saengerin Lei Huilan ist Angehoerige der Zhuang Minderheit und
!!    studiert an der Guangzhouer Musikhochschule.
!!    Aufgenommen am 5.5.87
!!    Vereinzelt Verzierungen.
!!!ONB: ESAC (Essen Associative Code) Database: CHINA
!!!AMT: simple quadruple
!!!AIN: vox
!!!EED: Helmut Schaffrath
!!!EEV: 1.0
*-
